storage/app/icons/tabler/outline/brand-aws.svg

<!--
tags: [cloud, computing, services, infrastructure, storage, networking, scalable, datacenter, virtualization, deployment]
category: Brand
version: "2.16"
unicode: "fa4c"
-->
<svg
  xmlns="http://www.w3.org/2000/svg"
  width="24"
  height="24"
  viewBox="0 0 24 24"
  fill="none"
  stroke="currentColor"
  stroke-width="2"
  stroke-linecap="round"
  stroke-linejoin="round"
>
  <path d="M17 18.5a15.198 15.198 0 0 1 -7.37 1.44a14.62 14.62 0 0 1 -6.63 -2.94" />
  <path d="M19.5 21c.907 -1.411 1.451 -3.323 1.5 -5c-1.197 -.773 -2.577 -.935 -4 -1" />
  <path d="M3 11v-4.5a1.5 1.5 0 0 1 3 0v4.5" />
  <path d="M3 9h3" />
  <path d="M9 5l1.2 6l1.8 -4l1.8 4l1.2 -6" />
  <path d="M18 10.25c0 .414 .336 .75 .75 .75h1.25a1 1 0 0 0 1 -1v-1a1 1 0 0 0 -1 -1h-1a1 1 0 0 1 -1 -1v-1a1 1 0 0 1 1 -1h1.25a.75 .75 0 0 1 .75 .75" />
</svg>

<svg xmlns="http://www.w3.org/2000/svg" width="24" height="24" fill="none" stroke="currentColor" stroke-linecap="round" stroke-linejoin="round" stroke-width="2" viewBox="0 0 24 24"><path d="M17 18.5a15.2 15.2 0 0 1-7.37 1.44A14.6 14.6 0 0 1 3 17m16.5 4c.907-1.411 1.451-3.323 1.5-5-1.197-.773-2.577-.935-4-1M3 11V6.5a1.5 1.5 0 0 1 3 0V11M3 9h3m3-4 1.2 6L12 7l1.8 4L15 5m3 5.25c0 .414.336.75.75.75H20a1 1 0 0 0 1-1V9a1 1 0 0 0-1-1h-1a1 1 0 0 1-1-1V6a1 1 0 0 1 1-1h1.25a.75.75 0 0 1 .75.75"/></svg>
